resources/svg/folder-received-fill.svg

<svg fill="currentColor" viewBox="0 0 24 24" xmlns="http://www.w3.org/2000/svg"><path d="M22 13.126C21.0149 12.4174 19.8062 12 18.5 12C15.1863 12 12.5 14.6863 12.5 18C12.5 19.0929 12.7922 20.1175 13.3027 21H3C2.44772 21 2 20.5523 2 20V4C2 3.44772 2.44772 3 3 3H10.4142L12.4142 5H21C21.5523 5 22 5.44772 22 6V13.126ZM20 17H23V19H20V22.5L15 18L20 13.5V17Z"/></svg>

<svg xmlns="http://www.w3.org/2000/svg" viewBox="0 0 24 24" fill="currentColor">
    <g>
        <path fill="none" d="M0 0h24v24H0z"/>
        <path fill-rule="nonzero" d="M22 13.126A6 6 0 0 0 13.303 21H3a1 1 0 0 1-1-1V4a1 1 0 0 1 1-1h7.414l2 2H21a1 1 0 0 1 1 1v7.126zM20 17h3v2h-3v3.5L15 18l5-4.5V17z"/>
    </g>
</svg>
